X: 073	% 16
T: Get Away From The Federals
T: or Fall of Paris
N: handwritten: Seneca Sq. Dance (plus an illegible squiggle)
S: Viola Ruth "Pioneer Western Folk Tunes" 1948 p.7 #3
R: march, reel
Z: 2019 John Chambers <jc:trillian.mit.edu>
N: Added rest before 2nd strain, to fix the rhythm.
M: 2/4
L: 1/16
K: G
V: 1 name=16
G2 |\
[BG][BG][BG][BG] [BG][BG][BG][BG] | d3B B3A | [BG][BG][BG][BG] [BG][BG][BG][BG] |\
A3[GB,] [G3B,3]A | [BG][BG][BG][BG] [BG][BG][BG][BG] | d3B B3B | ABAG E2F2 | G4- G2 ||
z2 |:\
g2f2g2e2 | d2B2 G4 | gggg a2b2 | e3e e2(fg) | a2b2a3g |\
dcBA G3G | [BG][BG][BG][BG] E2F2 |1 [G4B,4] [G2B,2](3(def) :|2 [G4B,4] [G2B,2] |]
